Adwaita++-Dark/actions/16/xc_crosshair.svg

<svg height="16" viewBox="0 0 16 16" width="16" xmlns="http://www.w3.org/2000/svg">
  <path d="m6 0v6h4v-6zm4 6v4h6v-4zm0 4h-4v6h4zm-4 0v-4h-6v4z" fill="#e6ddff"/>
</svg>

<svg xmlns="http://www.w3.org/2000/svg" width="16" height="16" version="1.1" viewBox="0 0 16 16">
 <defs>
  <style id="current-color-scheme" type="text/css">
   .ColorScheme-Text { color:#E6DDFF; } .ColorScheme-Highlight { color:#4285f4; }
  </style>
 </defs>
 <path style="fill:currentColor" class="ColorScheme-Text" d="M 6 0 L 6 6 L 10 6 L 10 0 L 6 0 z M 10 6 L 10 10 L 16 10 L 16 6 L 10 6 z M 10 10 L 6 10 L 6 16 L 10 16 L 10 10 z M 6 10 L 6 6 L 0 6 L 0 10 L 6 10 z"/>
</svg>
